;FLAVOR:Marlin
;TIME:11048
;Filament used: 6.21354m
;Layer height: 0.2
;MINX:87.006
;MINY:92.44
;MINZ:0.2
;MAXX:151.826
;MAXY:142.561
;MAXZ:101.4
;Generated with Cura_SteamEngine 4.10.0
M82 ;absolute extrusion mode
; Preamble
M220 S100 ;Reset Feedrate
M221 S100 ;Reset Flowrate

; - Home - this is used with the strain gauge as a zero position for the Z-offset
G28

; Remove the ";" before the next line if you want to level before each print (not recommended because it is not necessary)
;G29

; Now we know the positions we can move out of the way and happily droop at the side of the bed
M104 S215.0
M140 S75.0

G0 Z25
G0 X0 Y0

; Now wait for the temperatures to reach
M190 R75.0
M109 S215.0

; And we can now draw our purge line
G92 E0 ;Reset Extruder
G1 Z2.0 F3000 ;Move Z Axis up
G1 X0 Y20 Z0.28 F5000.0 ;Move to start position
G1 X0 Y200.0 Z0.28 F1500.0 E15 ;Draw the first line
G1 X0.3 Y200.0 Z0.28 F5000.0 ;Move to side a little
G1 X0.3 Y20 Z0.28 F1500.0 E30 ;Draw the second line
G92 E0 ;Reset Extruder
G1 Z2.0 F3000 ;Move Z Axis up
G92 E0
G92 E0
G1 F1500 E-0.5
;LAYER_COUNT:507
;LAYER:0
M107
G0 F6000 X90.159 Y96.056 Z0.2
;TYPE:SKIRT
G1 F1500 E0
G1 F1200 X91.057 Y95.228 E0.04063
G1 X91.239 Y95.078 E0.04847
G1 X91.987 Y94.513 E0.07965
G1 X92.781 Y94.014 E0.11084
G1 X93.615 Y93.584 E0.14205
G1 X94.66 Y93.164 E0.17951
G1 X94.887 Y93.086 E0.18749
G1 X95.787 Y92.819 E0.21871
G1 X96.705 Y92.63 E0.24989
G1 X97.317 Y92.549 E0.27042
G1 X97.594 Y92.52 E0.27968
G1 X98.792 Y92.46 E0.31958
G1 X98.998 Y92.461 E0.32643
G1 X99.957 Y92.508 E0.35837
G1 X100.206 Y92.531 E0.36668
G1 X100.982 Y92.63 E0.3927
G1 X101.51 Y92.717 E0.4105
G1 X101.834 Y92.776 E0.42145
G1 X101.997 Y92.808 E0.42698
G1 X104.55 Y93.275 E0.5133
G1 X107.058 Y93.661 E0.5977
G1 X109.532 Y93.969 E0.68062
G1 X112.046 Y94.212 E0.76463
G1 X114.578 Y94.384 E0.84903
G1 X117.076 Y94.483 E0.93218
G1 X119.595 Y94.511 E1.01597
G1 X122.087 Y94.468 E1.09887
G1 X124.644 Y94.352 E1.184
G1 X127.122 Y94.169 E1.26664
G1 X129.648 Y93.911 E1.3511
G1 X132.129 Y93.586 E1.43432
G1 X134.629 Y93.186 E1.51853
G1 X136.73 Y92.796 E1.5896
G1 X136.868 Y92.768 E1.59428
G1 X137.247 Y92.699 E1.6071
G1 X137.717 Y92.622 E1.62294
G1 X138.494 Y92.523 E1.64899
G1 X138.855 Y92.49 E1.66105
G1 X139.614 Y92.447 E1.68633
G1 X139.932 Y92.44 E1.69691
G1 X140.87 Y92.459 E1.72812
G1 X142.04 Y92.596 E1.7673
G1 X142.313 Y92.643 E1.77651
G1 X143.23 Y92.842 E1.80772
G1 X144.126 Y93.118 E1.8389
G1 X144.945 Y93.446 E1.86824
G1 X145.157 Y93.541 E1.87597
G1 X145.996 Y93.96 E1.90716
G1 X146.796 Y94.45 E1.93837
G1 X147.551 Y95.006 E1.96955
G1 X148.256 Y95.624 E2.00073
G1 X148.906 Y96.3 E2.03193
G1 X149.497 Y97.029 E2.06314
G1 X150.222 Y98.144 E2.10737
G1 X150.38 Y98.422 E2.11801
G1 X150.809 Y99.256 E2.1492
G1 X151.164 Y100.124 E2.18039
G1 X151.445 Y101.019 E2.21159
G1 X151.648 Y101.935 E2.2428
G1 X151.772 Y102.864 E2.27397
G1 X151.809 Y103.45 E2.2935
G1 X151.812 Y103.531 E2.2962
G1 X151.807 Y104.469 E2.3274
G1 X151.747 Y105.201 E2.35182
G1 X151.598 Y106.485 E2.39482
G1 X151.511 Y107.148 E2.41706
G1 X151.259 Y109.604 E2.49917
G1 X151.073 Y112.117 E2.58298
G1 X150.956 Y114.674 E2.66812
G1 X150.913 Y117.166 E2.75102
G1 X150.939 Y119.651 E2.83367
G1 X151.039 Y122.207 E2.91875
G1 X151.208 Y124.702 E3.00192
G1 X151.45 Y127.226 E3.08626
G1 X151.736 Y129.533 E3.16358
G1 X151.765 Y129.8 E3.17251
G1 X151.826 Y130.736 E3.20371
G1 X151.816 Y131.516 E3.22965
G1 X151.806 Y131.724 E3.23658
G1 X151.721 Y132.658 E3.26777
G1 X151.557 Y133.582 E3.29898
G1 X151.315 Y134.488 E3.33017
G1 X150.996 Y135.37 E3.36137
G1 X150.604 Y136.222 E3.39256
G1 X150.313 Y136.752 E3.41267
G1 X150.21 Y136.928 E3.41946
G1 X149.702 Y137.717 E3.45067
G1 X149.129 Y138.459 E3.48185
G1 X148.495 Y139.15 E3.51304
G1 X147.804 Y139.784 E3.54423
G1 X147.061 Y140.357 E3.57544
G1 X146.273 Y140.865 E3.60662
G1 X145.462 Y141.295 E3.63715
G1 X145.163 Y141.438 E3.64817
G1 X144.3 Y141.807 E3.67939
G1 X143.41 Y142.1 E3.71056
G1 X142.068 Y142.39 E3.75622
G1 X141.844 Y142.424 E3.76376
G1 X140.925 Y142.525 E3.79451
G1 X140.88 Y142.528 E3.79601
G1 X139.653 Y142.541 E3.83682
G1 X139.098 Y142.516 E3.8553
G1 X137.804 Y142.38 E3.89857
G1 X137.525 Y142.334 E3.90798
G1 X137.214 Y142.279 E3.91848
G1 X136.545 Y142.149 E3.94115
G1 X133.992 Y141.689 E4.02743
G1 X131.537 Y141.318 E4.11001
G1 X129.018 Y141.011 E4.19441
G1 X126.52 Y140.776 E4.27786
G1 X124.008 Y140.613 E4.36159
G1 X121.485 Y140.52 E4.44556
G1 X118.956 Y140.498 E4.52968
G1 X116.439 Y140.547 E4.61341
G1 X113.954 Y140.667 E4.69616
G1 X111.426 Y140.86 E4.78049
G1 X108.925 Y141.123 E4.86413
G1 X106.418 Y141.458 E4.94825
G1 X103.98 Y141.855 E5.03041
G1 X102.497 Y142.142 E5.08065
G1 X101.522 Y142.319 E5.11361
G1 X101.078 Y142.386 E5.12854
G1 X100.504 Y142.461 E5.14779
G1 X99.33 Y142.551 E5.18696
G1 X98.891 Y142.561 E5.20156
G1 X97.953 Y142.543 E5.23277
G1 X96.839 Y142.416 E5.27006
G1 X96.592 Y142.375 E5.27838
G1 X95.674 Y142.182 E5.30959
G1 X94.776 Y141.911 E5.34078
G1 X93.904 Y141.565 E5.37199
G1 X93.442 Y141.346 E5.38899
G1 X93.196 Y141.222 E5.39815
G1 X92.377 Y140.764 E5.42936
G1 X91.6 Y140.239 E5.46055
G1 X90.871 Y139.649 E5.49175
G1 X90.195 Y138.999 E5.52294
G1 X89.576 Y138.294 E5.55414
G1 X89.189 Y137.783 E5.57546
G1 X89.065 Y137.609 E5.58257
G1 X88.554 Y136.823 E5.61375
G1 X88.111 Y135.996 E5.64495
G1 X87.741 Y135.134 E5.67615
G1 X87.445 Y134.244 E5.70735
G1 X87.256 Y133.475 E5.73369
G1 X87.242 Y133.408 E5.73596
G1 X87.089 Y132.483 E5.76715
G1 X87.016 Y131.548 E5.79834
G1 X87.039 Y130.345 E5.83836
G1 X87.065 Y129.994 E5.85007
G1 X87.116 Y129.478 E5.86731
G1 X87.404 Y127.11 E5.94665
G1 X87.642 Y124.553 E6.03207
G1 X87.801 Y122.081 E6.11445
G1 X87.892 Y119.559 E6.19839
G1 X87.912 Y117.036 E6.28231
G1 X87.86 Y114.512 E6.36628
G1 X87.738 Y112.014 E6.44946
G1 X87.544 Y109.49 E6.53365
G1 X87.214 Y106.447 E6.63546
G1 X87.083 Y105.397 E6.67065
G1 X87.006 Y104.462 E6.70186
G1 X87.01 Y103.524 E6.73305
G1 X87.163 Y102.133 E6.7796
G1 X87.218 Y101.819 E6.7902
G1 X87.419 Y100.903 E6.82139
G1 X87.697 Y100.007 E6.85259
G1 X88.051 Y99.139 E6.88377
G1 X88.477 Y98.303 E6.91498
G1 X88.973 Y97.507 E6.94617
G1 X89.535 Y96.757 E6.97735
G1 X90.159 Y96.056 E7.00856
G0 F6000 X90.529 Y96.25
G1 F1200 X91.311 Y95.537 E7.04376
G1 X91.493 Y95.387 E7.0516
G1 X92.229 Y94.833 E7.08224
G1 X93.009 Y94.345 E7.11284
G1 X93.829 Y93.926 E7.14347
G1 X94.79 Y93.542 E7.17789
G1 X95.017 Y93.464 E7.18587
G1 X95.9 Y93.203 E7.2165
G1 X96.802 Y93.02 E7.24711
G1 X97.358 Y92.947 E7.26576
G1 X97.635 Y92.918 E7.27503
G1 X98.79 Y92.86 E7.31349
G1 X98.996 Y92.861 E7.32034
G1 X99.92 Y92.906 E7.35111
G1 X100.169 Y92.929 E7.35943
G1 X100.917 Y93.025 E7.38451
G1 X101.445 Y93.112 E7.40231
G1 X101.757 Y93.168 E7.41285
G1 X101.927 Y93.201 E7.41861
G1 X104.489 Y93.67 E7.50524
G1 X107.018 Y94.059 E7.59034
G1 X109.479 Y94.366 E7.67283
G1 X112.014 Y94.611 E7.75754
G1 X114.536 Y94.782 E7.84161
G1 X117.091 Y94.883 E7.92666
G1 X119.598 Y94.911 E8.01005
G1 X122.113 Y94.868 E8.09371
G1 X124.653 Y94.753 E8.17828
G1 X127.159 Y94.568 E8.26185
G1 X129.704 Y94.307 E8.34694
G1 X132.172 Y93.984 E8.42973
G1 X134.732 Y93.575 E8.51596
G1 X136.719 Y93.205 E8.58318
G1 X136.946 Y93.16 E8.59088
G1 X137.311 Y93.093 E8.60322
G1 X137.781 Y93.016 E8.61906
G1 X138.53 Y92.921 E8.64417
G1 X138.891 Y92.888 E8.65623
G1 X139.623 Y92.847 E8.68061
G1 X139.941 Y92.84 E8.69119
G1 X140.861 Y92.859 E8.7218
G1 X141.972 Y92.991 E8.75901
G1 X142.245 Y93.038 E8.76822
G1 X143.145 Y93.233 E8.79885
G1 X144.024 Y93.506 E8.82947
G1 X144.782 Y93.811 E8.85664
G1 X144.994 Y93.906 E8.86437
G1 X145.817 Y94.318 E8.89498
G1 X146.601 Y94.801 E8.92561
G1 X147.34 Y95.35 E8.95623
G1 X148.029 Y95.96 E8.98683
G1 X148.662 Y96.629 E9.01747
G1 X149.235 Y97.349 E9.04807
G1 X149.875 Y98.341 E9.08734
G1 X150.033 Y98.619 E9.09797
G1 X150.452 Y99.439 E9.1286
G1 X150.799 Y100.292 E9.15923
G1 X151.071 Y101.171 E9.18983
G1 X151.265 Y102.071 E9.22045
G1 X151.381 Y102.984 E9.25106
G1 X151.41 Y103.465 E9.26709
G1 X151.413 Y103.546 E9.26979
G1 X151.407 Y104.466 E9.30039
G1 X151.35 Y105.155 E9.32338
G1 X151.201 Y106.433 E9.36617
G1 X151.119 Y107.057 E9.38711
G1 X150.858 Y109.604 E9.47226
G1 X150.672 Y112.105 E9.55568
G1 X150.556 Y114.647 E9.64031
G1 X150.513 Y117.164 E9.72404
G1 X150.539 Y119.671 E9.80743
G1 X150.639 Y122.214 E9.89207
G1 X150.809 Y124.731 E9.97598
G1 X151.054 Y127.282 E10.06122
G1 X151.338 Y129.576 E10.1381
G1 X151.367 Y129.843 E10.14703
G1 X151.427 Y130.762 E10.17766
G1 X151.417 Y131.497 E10.20211
G1 X151.407 Y131.705 E10.20904
G1 X151.323 Y132.622 E10.23967
G1 X151.159 Y133.528 E10.27029
G1 X150.918 Y134.416 E10.30089
G1 X150.6 Y135.28 E10.33151
G1 X150.209 Y136.114 E10.36215
G1 X149.968 Y136.55 E10.37872
G1 X149.865 Y136.726 E10.3855
G1 X149.365 Y137.5 E10.41615
G1 X148.801 Y138.227 E10.44675
G1 X148.176 Y138.903 E10.47737
G1 X147.494 Y139.522 E10.50801
G1 X146.761 Y140.079 E10.53863
G1 X145.983 Y140.571 E10.56924
G1 X145.289 Y140.935 E10.59531
G1 X144.99 Y141.078 E10.60633
G1 X144.143 Y141.438 E10.63694
G1 X143.268 Y141.724 E10.66756
G1 X142.008 Y141.995 E10.71043
G1 X141.784 Y142.029 E10.71796
G1 X140.898 Y142.126 E10.74761
G1 X140.853 Y142.129 E10.74911
G1 X139.671 Y142.141 E10.78842
G1 X139.116 Y142.116 E10.8069
G1 X137.869 Y141.986 E10.8486
G1 X137.59 Y141.94 E10.858
G1 X137.29 Y141.886 E10.86814
G1 X136.615 Y141.755 E10.89101
G1 X134.086 Y141.299 E10.97648
G1 X131.578 Y140.92 E11.06085
G1 X129.067 Y140.614 E11.14498
G1 X126.547 Y140.377 E11.22917
G1 X124.013 Y140.212 E11.31363
G1 X121.503 Y140.12 E11.39717
G1 X118.952 Y140.098 E11.48202
G1 X116.448 Y140.147 E11.56531
G1 X113.903 Y140.269 E11.65006
G1 X111.39 Y140.462 E11.73389
G1 X108.866 Y140.726 E11.81829
G1 X106.372 Y141.06 E11.90199
G1 X103.899 Y141.462 E11.98532
G1 X102.425 Y141.748 E12.03526
G1 X101.454 Y141.925 E12.06809
G1 X101.026 Y141.99 E12.08248
G1 X100.452 Y142.065 E12.10174
G1 X99.32 Y142.151 E12.1395
G1 X98.881 Y142.161 E12.1541
G1 X97.961 Y142.142 E12.18471
G1 X96.904 Y142.021 E12.22009
G1 X96.657 Y141.98 E12.22842
G1 X95.756 Y141.79 E12.25905
G1 X94.875 Y141.522 E12.28967
G1 X93.622 Y140.988 E12.33498
G1 X93.376 Y140.864 E12.34414
G1 X92.572 Y140.415 E12.37477
G1 X91.811 Y139.897 E12.40539
G1 X91.098 Y139.315 E12.436
G1 X90.437 Y138.674 E12.46662
G1 X89.835 Y137.977 E12.49725
G1 X89.515 Y137.551 E12.51498
G1 X89.391 Y137.377 E12.52208
G1 X88.889 Y136.604 E12.55274
G1 X88.457 Y135.792 E12.58333
G1 X88.097 Y134.944 E12.61397
G1 X87.812 Y134.069 E12.64458
G1 X87.647 Y133.393 E12.66772
G1 X87.633 Y133.326 E12.67
G1 X87.484 Y132.418 E12.7006
G1 X87.415 Y131.5 E12.73122
G1 X87.438 Y130.375 E12.76865
G1 X87.464 Y130.024 E12.78035
G1 X87.513 Y129.527 E12.79696
G1 X87.805 Y127.128 E12.87734
G1 X88.038 Y124.624 E12.96099
G1 X88.202 Y122.086 E13.04558
G1 X88.292 Y119.577 E13.12908
G1 X88.312 Y117.016 E13.21426
G1 X88.26 Y114.483 E13.29853
G1 X88.138 Y112 E13.38121
G1 X87.941 Y109.436 E13.46674
G1 X87.613 Y106.412 E13.56791
G1 X87.48 Y105.347 E13.60361
G1 X87.405 Y104.429 E13.63424
G1 X87.411 Y103.509 E13.66484
G1 X87.557 Y102.202 E13.70858
G1 X87.612 Y101.888 E13.71919
G1 X87.81 Y100.989 E13.7498
G1 X88.085 Y100.111 E13.78041
G1 X88.436 Y99.259 E13.81105
G1 X88.859 Y98.442 E13.84165
G1 X89.351 Y97.664 E13.87227
G1 X89.91 Y96.931 E13.90293
G1 X90.529 Y96.25 E13.93354
G0 F6000 X90.898 Y96.447
G1 F1200 X91.566 Y95.846 E13.96343
G1 X91.748 Y95.696 E13.97127
G1 X92.469 Y95.153 E14.00129
G1 X93.236 Y94.676 E14.03133
G1 X94.042 Y94.269 E14.06136
G1 X94.92 Y93.921 E14.09278
G1 X95.147 Y93.843 E14.10076
G1 X96.014 Y93.587 E14.13083
G1 X96.899 Y93.409 E14.16085
G1 X97.4 Y93.344 E14.17765
G1 X97.677 Y93.315 E14.18692
G1 X98.789 Y93.26 E14.22395
G1 X98.995 Y93.261 E14.2308
G1 X99.883 Y93.304 E14.26037
G1 X100.132 Y93.327 E14.26869
G1 X100.852 Y93.42 E14.29283
G1 X101.38 Y93.507 E14.31063
G1 X101.681 Y93.561 E14.3208
G1 X101.872 Y93.598 E14.32727
G1 X104.427 Y94.066 E14.41367
G1 X106.906 Y94.447 E14.49709
G1 X109.464 Y94.766 E14.58282
G1 X111.984 Y95.01 E14.66703
G1 X114.529 Y95.182 E14.75187
G1 X117.07 Y95.283 E14.83645
G1 X119.6 Y95.311 E14.92061
G1 X122.102 Y95.268 E15.00384
G1 X124.703 Y95.15 E15.09043
G1 X127.193 Y94.967 E15.17348
G1 X129.725 Y94.707 E15.25813
G1 X132.25 Y94.377 E15.34283
G1 X134.79 Y93.971 E15.42838
G1 X136.806 Y93.596 E15.49658
G1 X137.025 Y93.552 E15.50401
G1 X137.376 Y93.488 E15.51588
G1 X137.846 Y93.411 E15.53172
G1 X138.566 Y93.319 E15.55586
G1 X138.927 Y93.286 E15.56792
G1 X139.632 Y93.246 E15.59141
G1 X139.95 Y93.239 E15.60199
G1 X140.852 Y93.26 E15.63199
G1 X141.905 Y93.385 E15.66726
G1 X142.178 Y93.432 E15.67648
G1 X143.06 Y93.624 E15.7065
G1 X143.922 Y93.894 E15.73654
G1 X144.618 Y94.176 E15.76152
G1 X144.83 Y94.271 E15.76925
G1 X145.637 Y94.676 E15.79928
G1 X146.405 Y95.151 E15.82931
G1 X147.128 Y95.693 E15.85937
G1 X147.8 Y96.296 E15.8894
G1 X148.416 Y96.956 E15.91942
G1 X148.972 Y97.668 E15.94947
G1 X149.527 Y98.539 E15.98382
G1 X149.685 Y98.817 E15.99446
G1 X150.096 Y99.621 E16.02449
G1 X150.434 Y100.458 E16.05451
G1 X150.697 Y101.322 E16.08455
G1 X150.883 Y102.206 E16.1146
G1 X151.01 Y103.479 E16.15715
G1 X151.013 Y103.56 E16.15984
G1 X151.006 Y104.464 E16.18991
G1 X150.953 Y105.109 E16.21144
G1 X150.824 Y106.225 E16.2488
G1 X150.723 Y107 E16.2748
G1 X150.459 Y109.567 E16.36063
G1 X150.272 Y112.093 E16.44487
G1 X150.156 Y114.622 E16.52907
G1 X150.112 Y117.161 E16.61353
G1 X150.139 Y119.691 E16.69769
G1 X150.239 Y122.221 E16.7819
G1 X150.412 Y124.787 E16.86744
G1 X150.653 Y127.297 E16.95131
G1 X150.94 Y129.62 E17.02916
G1 X150.969 Y129.887 E17.03809
G1 X151.027 Y130.788 E17.06812
G1 X151.017 Y131.478 E17.09107
G1 X151.007 Y131.686 E17.098
G1 X150.924 Y132.585 E17.12803
G1 X150.761 Y133.473 E17.15805
G1 X150.521 Y134.344 E17.1881
G1 X150.205 Y135.19 E17.21814
G1 X149.622 Y136.348 E17.26126
G1 X149.519 Y136.524 E17.26804
G1 X149.029 Y137.282 E17.29806
G1 X148.474 Y137.995 E17.32812
G1 X147.858 Y138.655 E17.35814
G1 X147.185 Y139.258 E17.3882
G1 X146.462 Y139.799 E17.41823
G1 X145.694 Y140.275 E17.44828
G1 X145.117 Y140.574 E17.4699
G1 X144.818 Y140.717 E17.48092
G1 X143.987 Y141.07 E17.51095
G1 X143.128 Y141.348 E17.54098
G1 X141.948 Y141.599 E17.58111
G1 X141.724 Y141.633 E17.58864
G1 X140.871 Y141.726 E17.61718
G1 X140.826 Y141.729 E17.61868
G1 X139.689 Y141.742 E17.6565
G1 X139.134 Y141.717 E17.67498
G1 X137.934 Y141.591 E17.71511
G1 X137.655 Y141.545 E17.72451
G1 X137.367 Y141.493 E17.73425
G1 X136.766 Y141.376 E17.75461
G1 X134.116 Y140.899 E17.84417
G1 X131.645 Y140.525 E17.92729
G1 X129.082 Y140.213 E18.01317
G1 X126.578 Y139.978 E18.09682
G1 X124.053 Y139.813 E18.18098
G1 X121.522 Y139.72 E18.26521
G1 X118.947 Y139.698 E18.35086
G1 X116.421 Y139.747 E18.43489
G1 X113.887 Y139.869 E18.51927
G1 X111.353 Y140.063 E18.6038
G1 X108.843 Y140.327 E18.68774
G1 X106.326 Y140.663 E18.7722
G1 X103.793 Y141.075 E18.85756
G1 X102.353 Y141.355 E18.90635
G1 X101.386 Y141.531 E18.93904
G1 X100.975 Y141.593 E18.95286
G1 X100.401 Y141.668 E18.97212
G1 X99.311 Y141.751 E19.00848
G1 X98.872 Y141.761 E19.02308
G1 X97.969 Y141.742 E19.05312
G1 X96.97 Y141.626 E19.08657
G1 X96.723 Y141.585 E19.0949
G1 X95.839 Y141.398 E19.12495
G1 X94.976 Y141.134 E19.15497
G1 X93.802 Y140.631 E19.19745
G1 X93.556 Y140.507 E19.20661
G1 X92.768 Y140.065 E19.23666
G1 X92.023 Y139.556 E19.26667
G1 X91.325 Y138.982 E19.29673
G1 X90.681 Y138.349 E19.32676
G1 X89.84 Y137.319 E19.37099
G1 X89.716 Y137.145 E19.3781
G1 X89.225 Y136.387 E19.40813
G1 X88.803 Y135.588 E19.43819
G1 X88.454 Y134.756 E19.4682
G1 X88.179 Y133.895 E19.49826
